wp-content/uploads/2025/03/03.Work_1.svg

<svg width="72" height="72" viewBox="0 0 72 72" fill="none" xmlns="http://www.w3.org/2000/svg">
<rect width="72" height="72" rx="36" fill="#FC4C02"/>
<mask id="mask0_3303_10869" style="mask-type:luminance" maskUnits="userSpaceOnUse" x="0" y="0" width="72" height="72">
<path d="M72 0L0 0L0 72H72V0Z" fill="white"/>
</mask>
<g mask="url(#mask0_3303_10869)">
<path d="M48.4467 23.7216L48.3504 23.6254C44.8286 20.1597 40.1597 18.2424 35.1859 18.2344C30.212 18.2344 25.5351 20.1357 22.0052 23.5933C18.2428 27.2915 16.1971 32.4338 16.3977 37.7045C16.4217 38.3061 16.3576 38.9078 16.2292 39.4854C15.9885 40.5283 16.2051 41.6193 16.9031 42.4135C16.1811 42.0124 15.2585 42.1087 14.6408 42.7264L11.4559 45.9113C10.7179 46.6493 10.7179 47.8527 11.4559 48.5987C12.194 49.3368 12.194 50.5401 11.4559 51.2862L10.8061 51.936C10.4692 52.2729 10.2606 52.7222 10.2526 53.2035C10.0841 61.7152 18.1385 63.9213 22.2379 59.8299L22.4625 59.6053L23.8022 60.945C24.5403 61.6831 25.7436 61.6831 26.4897 60.945L29.6746 57.7602C30.3003 57.1344 30.3885 56.1878 29.9634 55.4658C30.7014 56.0274 31.6641 56.1798 32.5786 55.9552C33.6616 55.6824 34.8249 55.6904 35.956 56.0274C36.4052 56.1557 36.8786 56.1557 37.3358 56.0594C54.7763 52.3933 58.4826 33.7495 48.4547 23.7216H48.4467Z" fill="white"/>
<path d="M36.0039 14.6485C37.4479 14.6485 38.6192 13.4773 38.6192 12.0333V9.19339C38.6192 7.74938 37.4479 6.57812 36.0039 6.57812C34.5599 6.57812 33.3887 7.74938 33.3887 9.19339V12.0333C33.3887 13.4773 34.5599 14.6485 36.0039 14.6485Z" fill="white"/>
<path d="M62.8145 33.3887H59.9746C58.5306 33.3887 57.3594 34.5599 57.3594 36.0039C57.3594 37.4479 58.5306 38.6192 59.9746 38.6192H62.8145C64.2585 38.6192 65.4298 37.4479 65.4298 36.0039C65.4298 34.5599 64.2585 33.3887 62.8145 33.3887Z" fill="white"/>
<path d="M17.1996 20.9056C17.697 21.403 18.3468 21.6677 19.0447 21.6677C19.7427 21.6677 20.4005 21.395 20.8898 20.9056C21.3872 20.4082 21.66 19.7584 21.66 19.0525C21.66 18.3465 21.3872 17.6967 20.8898 17.1993L18.8843 15.1938C18.3869 14.6964 17.7371 14.4316 17.0391 14.4316C16.3412 14.4316 15.6834 14.7044 15.186 15.1938C14.1672 16.2126 14.1672 17.8732 15.186 18.892L17.1916 20.8976L17.1996 20.9056Z" fill="white"/>
<path d="M54.808 51.1098C54.3107 50.6124 53.6609 50.3477 52.9629 50.3477C52.265 50.3477 51.6072 50.6204 51.1098 51.1098C50.6124 51.5991 50.3477 52.257 50.3477 52.9629C50.3477 53.6689 50.6204 54.3187 51.1098 54.808L53.1153 56.8136C53.6127 57.311 54.2625 57.5838 54.9685 57.5838C55.6745 57.5838 56.3243 57.311 56.8136 56.8136C57.8324 55.7948 57.8324 54.1342 56.8136 53.1153L54.808 51.1098Z" fill="white"/>
<path d="M52.9552 21.6685C53.6531 21.6685 54.3109 21.3958 54.8003 20.9064L56.8059 18.9008C57.8247 17.882 57.8247 16.2214 56.8059 15.2025C56.3085 14.7052 55.6587 14.4404 54.9607 14.4404C54.2628 14.4404 53.605 14.7132 53.1076 15.2025L51.102 17.2081C50.0832 18.2269 50.0832 19.8876 51.102 20.9064C51.5994 21.4038 52.2492 21.6685 52.9552 21.6685Z" fill="white"/>
</g>
</svg>

<svg xmlns="http://www.w3.org/2000/svg" width="72" height="72" fill="none"><rect width="72" height="72" fill="#FC4C02" rx="36"/><mask id="a" width="72" height="72" x="0" y="0" maskUnits="userSpaceOnUse" style="mask-type:luminance"><path fill="#fff" d="M72 0H0v72h72z"/></mask><g fill="#fff" mask="url(#a)"><path d="m48.447 23.722-.097-.097c-3.521-3.465-8.19-5.383-13.164-5.39-4.974 0-9.65 1.9-13.18 5.358a18.83 18.83 0 0 0-5.608 14.112 7 7 0 0 1-.169 1.78c-.24 1.043-.024 2.134.674 2.928a1.89 1.89 0 0 0-2.262.313l-3.185 3.185a1.91 1.91 0 0 0 0 2.688 1.91 1.91 0 0 1 0 2.687l-.65.65a1.84 1.84 0 0 0-.553 1.267c-.169 8.512 7.886 10.718 11.985 6.627l.224-.225 1.34 1.34a1.91 1.91 0 0 0 2.688 0l3.185-3.185a1.89 1.89 0 0 0 .288-2.294c.738.561 1.701.714 2.616.49a6.36 6.36 0 0 1 3.377.071c.45.129.923.129 1.38.032 17.44-3.666 21.147-22.31 11.119-32.337zM36.004 14.649a2.616 2.616 0 0 0 2.615-2.616v-2.84a2.616 2.616 0 0 0-5.23 0v2.84a2.616 2.616 0 0 0 2.615 2.616M62.815 33.389h-2.84a2.616 2.616 0 0 0 0 5.23h2.84a2.616 2.616 0 0 0 0-5.23M17.2 20.906a2.58 2.58 0 0 0 1.845.762c.698 0 1.355-.273 1.845-.762a2.6 2.6 0 0 0 .77-1.854 2.6 2.6 0 0 0-.77-1.853l-2.006-2.005a2.58 2.58 0 0 0-1.845-.762 2.63 2.63 0 0 0-1.853.762 2.62 2.62 0 0 0 0 3.698l2.006 2.006zM54.808 51.11a2.58 2.58 0 0 0-1.845-.762 2.63 2.63 0 0 0-1.853.762 2.57 2.57 0 0 0-.762 1.853c0 .706.272 1.356.762 1.845l2.005 2.006a2.6 2.6 0 0 0 1.853.77c.706 0 1.356-.273 1.846-.77a2.62 2.62 0 0 0 0-3.699zM52.955 21.669c.698 0 1.356-.273 1.845-.763l2.006-2.005a2.62 2.62 0 0 0 0-3.698 2.58 2.58 0 0 0-1.845-.763 2.63 2.63 0 0 0-1.853.763l-2.006 2.005a2.62 2.62 0 0 0 0 3.698 2.58 2.58 0 0 0 1.853.763"/></g></svg>
